icons/codesandbox.svg

<svg width="24" height="24" viewBox="0 0 24 24" fill="none" xmlns="http://www.w3.org/2000/svg">
<path fill-rule="evenodd" clip-rule="evenodd" d="M11.5097 2.12842C11.8141 1.95719 12.1858 1.95719 12.4902 2.12842L20.4902 6.62842C20.8051 6.80554 21 7.13873 21 7.5V11.9783C21.0003 11.9923 21.0003 12.0062 21 12.0201V16.5C21 16.8613 20.8051 17.1945 20.4902 17.3716L12.4902 21.8716C12.1858 22.0428 11.8141 22.0428 11.5097 21.8716L3.50971 17.3716C3.19484 17.1945 2.99997 16.8613 2.99997 16.5V12.0201C2.99968 12.0062 2.99968 11.9923 2.99997 11.9783V7.5C2.99997 7.13873 3.19484 6.80554 3.50971 6.62842L11.5097 2.12842ZM4.99997 13.618V15.9152L6.99997 17.0402V14.618L4.99997 13.618ZM8.99997 18.1652V14C8.99997 13.6212 8.78597 13.275 8.44719 13.1056L4.99997 11.382V9.20985L11 12.5848V19.2902L8.99997 18.1652ZM13 19.2902L15 18.1652V14C15 13.6212 15.214 13.275 15.5528 13.1056L19 11.382V9.20985L13 12.5848V19.2902ZM12 10.8527L17.9602 7.5L16 6.39735L12.4902 8.37158C12.1858 8.54281 11.8141 8.54281 11.5097 8.37158L7.99997 6.39735L6.0397 7.5L12 10.8527ZM10.0397 5.25L12 6.35265L13.9602 5.25L12 4.14735L10.0397 5.25ZM19 13.618L17 14.618V17.0402L19 15.9152V13.618Z" fill="black"/>
</svg>

<svg
  width="24"
  height="24"
  viewBox="0 0 24 24"
  xmlns="http://www.w3.org/2000/svg"
>
  <path
    fill-rule="evenodd"
    clip-rule="evenodd"
    d="M11.51 2.128a1 1 0 0 1 .98 0l8 4.5A1 1 0 0 1 21 7.5v4.478a.97.97 0 0 1 0 .042v4.48a1 1 0 0 1-.51.872l-8 4.5a1 1 0 0 1-.98 0l-8-4.5A1 1 0 0 1 3 16.5v-4.48V7.5a1 1 0 0 1 .51-.872l8-4.5zM5 13.618v2.297l2 1.125v-2.422l-2-1zm4 4.547V14a1 1 0 0 0-.553-.894L5 11.382V9.21l6 3.375v6.705l-2-1.125zm4 1.125l2-1.125V14a1 1 0 0 1 .553-.894L19 11.382V9.21l-6 3.375v6.705zm-1-8.437L17.96 7.5 16 6.397l-3.51 1.975a1 1 0 0 1-.98 0L8 6.397 6.04 7.5 12 10.853zM10.04 5.25L12 6.353l1.96-1.103L12 4.147 10.04 5.25zM19 13.618l-2 1v2.422l2-1.125v-2.297z"
  />
</svg>
